shader_type canvas_item;

uniform vec4 tint_color : source_color = vec4(1.0, 0.0, 0.0, 1.0);

void fragment() {
    vec4 tex = texture(TEXTURE, UV);
    COLOR = tex * tint_color;
}

//void light() {
//	// Called for every pixel for every light affecting the CanvasItem.
//	// Uncomment to replace the default light processing function with this one.
//}
